Origami/22x22/apps/xnretro.svg

<svg width="22" height="22" version="1.1" viewBox="0 0 22 22" xmlns="http://www.w3.org/2000/svg">
 <path d="m16.374023 2.5800781c-0.546526 0.1018278-1.092325 0.2197266-1.374023 0.2197266-2.308791 0-4.995744 0.9718226-6.5878905 2.9218748-1.3594925 1.6650985-1.794867 4.1585785-1.893555 6.1054695 0.098108-0.966049 1.389365-1.158393 2.0507815-1.701172 0.719563-0.590496 1.351529-2.7255865 2.430664-2.7255865 0.135351-2.5e-5 0.270616 0.00682 0.405274 0.02051 4e-3 2.025e-4 0.0077 7.5e-4 0.01172 1e-3 4.223228 0.218144 7.333006 3.3005705 7.333006 7.5780995 0 0.857241-0.138999 1.680901-0.388672 2.455078 0.07014 0.03117 0.13667 0.05525 0.203125 0.07813a10 10 0 0 0 0.0039 -0.0049c0.141068-0.163359 0.269872-0.33466 0.399414-0.505859a10 10 0 0 0 0.186524 -0.245118c0.109508-0.154384 0.209313-0.314789 0.30957-0.474609a10 10 0 0 0 0.202148 -0.330078c0.08758-0.152417 0.168756-0.308302 0.248047-0.464844a10 10 0 0 0 0.181641 -0.375976c0.07194-0.15808 0.139548-0.317971 0.203125-0.479492a10 10 0 0 0 0.148437 -0.404297c0.05373-0.155916 0.106359-0.312228 0.152344-0.470703a10 10 0 0 0 0.120117 -0.473633c0.03391-0.142561 0.07001-0.284575 0.09766-0.428711a10 10 0 0 0 0.08496 -0.561524c0.0167-0.125205 0.03881-0.248962 0.05078-0.375a10 10 0 0 0 0.04688 -0.938464c-8.5e-4 -0.210145-0.0084-0.42021-0.02246-0.629883-6.2e-5 -9.5e-4 6.5e-5 -2e-3 0-3e-3 -0.0039-0.05941-0.01072-0.11849-0.01563-0.177734-0.02194-0.277974-0.0555-0.554909-0.100586-0.830078-0.01039-0.06189-0.0234-0.12303-0.03515-0.184571a10 10 0 0 0 -2e-3 -0.01074c-0.04268-0.226285-0.09317-0.4510285-0.151367-0.673828-1.81e-4 -7e-4 -8.01e-4 -0.00125-1e-3 -0.00195-0.02994-0.1145935-0.06176-0.228489-0.0957-0.3417965-0.056327-0.1876-0.118202-0.373553-0.185501-0.5575675-0.052247-0.143194-0.10732-0.285214-0.166015-0.425781-0.067096-0.1613465-0.13841-0.3209065-0.213868-0.4785155-0.055928-0.1163805-0.11158-0.2334185-0.171875-0.3476565a10 10 0 0 0 -0.0029 -0.00683l-1e-3 -1e-3c-0.09287-0.174063-0.190917-0.3453855-0.293946-0.513672-0.0018-3e-3 -4e-3 -0.00579-0.0059-0.00879-0.08048-0.1319395-0.163337-0.262371-0.25-0.390625l-2e-3 -0.00295a10 10 0 0 0 -2e-3 -0.0039c-0.100981-0.149322-0.207047-0.29646-0.316315-0.4404345-0.101313-0.1334905-0.20623-0.263994-0.314453-0.392578a10 10 0 0 0 -0.0039 -0.0049c-0.03579-0.04131-0.07193-0.082329-0.108398-0.123047-0.201683-0.2315295-0.412804-0.4553997-0.636719-0.6689451-0.0029-0.00268-0.0059-0.00513-0.0088-0.00781a10 10 0 0 0 -0.048767 -0.0458315c-0.120023-0.1126738-0.242054-0.2238875-0.368164-0.3310547 0.0024-0.00246 0.0034-0.00439 0.0059-0.00684a10 10 0 0 0 -1.107463 -0.8076131zm1.878906 15.007812c-0.04856 0.05457-0.09772 0.108613-0.14746 0.16211 0.04975-0.0535 0.0989-0.107536 0.14746-0.16211zm-0.567382 0.586914c-0.06175 0.05907-0.124256 0.11734-0.1875 0.174805-0.0036 0.0077-0.0062 0.0158-0.0098 0.02343 0.06668-0.06516 0.132439-0.131248 0.197266-0.198242z" style="fill:#ffc42e"/>
 <path d="m11.40918 7.020508c2.017024 0.20484 2.94043 1.9582285 2.94043 4.029297 2.5e-5 0.135351-0.0068 0.270616-0.02051 0.405273-2.03e-4 4e-3 -7.5e-4 0.0077-1e-3 0.01172-0.218144 4.22323-3.050571 7.333006-7.3281 7.333006-0.857241 0-2.102776-0.64974-2.876953-0.899414 0.025365 0.02161-0.01035 0.127617-0.072266 0.275391a10 10 0 0 0 6.949219 2.824219c0.210145-8.5e-4 0.42021-0.0084 0.629883-0.02246 9.5e-4 -6.2e-5 2e-3 6.5e-5 3e-3 0 0.05941-0.0039 0.118491-0.01072 0.177734-0.01563 0.277975-0.02194 0.554909-0.0555 0.830079-0.100586 0.06189-0.01039 0.12303-0.0234 0.18457-0.03515a10 10 0 0 0 0.01074 -2e-3c0.226285-0.04268 0.451028-0.09317 0.673828-0.151367 7e-4 -1.81e-4 0.0013-8.01e-4 2e-3 -1e-3 0.114594-0.02994 0.228489-0.06176 0.341797-0.0957 0.187649-0.05637 0.373602-0.118248 0.557617-0.185547 0.143194-0.05225 0.285214-0.10732 0.425781-0.166015 0.161347-0.0671 0.320906-0.13841 0.478515-0.213868 0.116381-0.05593 0.233419-0.11158 0.347657-0.171875a10 10 0 0 0 0.0068 -0.0029l1e-3 -1e-3c0.174086-0.09289 0.345385-0.190917 0.513672-0.293946 3e-3 -0.0018 0.0058-4e-3 0.0088-0.0059 0.131939-0.08048 0.262371-0.163337 0.390625-0.25l3e-3 -2e-3a10 10 0 0 0 0.0039 -2e-3c0.149316-0.101066 0.296455-0.207138 0.440429-0.316406 0.133491-0.101313 0.263994-0.20623 0.392578-0.314453a10 10 0 0 0 0.0049 -0.0039c0.04131-0.03579 0.08233-0.07193 0.123047-0.108398 0.23153-0.201683 0.4554-0.412804 0.668945-0.636719 0.0027-0.0029 0.0051-0.0059 0.0078-0.0088a10 10 0 0 0 0.0459 -0.04883c0.112674-0.120023 0.223888-0.242054 0.331055-0.368164 0.253592-0.779819 0.394348-1.610688 0.394348-2.475386 0-4.280207-3.363861-7.765227-7.59082-7.979492zm-7.7822269 10.517578c0.065158 0.06668 0.1312451 0.132438 0.1982422 0.197265-0.059067-0.06175-0.11734-0.124255-0.1748047-0.1875-0.00765-0.0036-0.015797-0.0062-0.023437-0.0098z" style="fill:#ff8514"/>
 <path d="m4.461914 3.6269531c-0.066676 0.065158-0.1324375 0.1312451-0.1972655 0.1982422 0.061751-0.059067 0.1242555-0.11734 0.1875-0.1748047 0.00355-0.00765 0.00619-0.015797 0.00976-0.023437zm-0.6171875 0.6230469c-0.0497441 0.0534965-0.098901 0.107536-0.1474609 0.1621095 0.0485599-0.0545735 0.0977168-0.108613 0.1474609-0.1621095zm-0.3242187 0.1259765a10 10 0 0 0 -2.5205078 6.6240235 10 10 0 0 0 0.022461 0.629883c0.0039 0.06039 0.010638 0.120451 0.015625 0.180664a10 10 0 0 0 0.100586 0.830078c0.010991 0.06548 0.024831 0.130145 0.037109 0.195313a10 10 0 0 0 0.1513672 0.673828c0.030098 0.115296 0.062529 0.229758 0.09668 0.34375a10 10 0 0 0 0.1855467 0.557617c0.052247 0.143194 0.1073209 0.285214 0.1660156 0.425781a10 10 0 0 0 0.2138672 0.478515c0.057 0.118609 0.1131505 0.238189 0.1748047 0.354493 2.041e-4 3.85e-4 7.7e-4 6e-4 9.75e-4 1e-3a10 10 0 0 0 0.2939454 0.513672c0.082188 0.135025 0.1672233 0.268239 0.2558593 0.399414 0.1024148 0.151565 0.2094532 0.301195 0.3203125 0.447265 0.1025716 0.13515 0.2087039 0.267329 0.3183593 0.397461a10 10 0 0 0 0.1083985 0.123047c0.2016825 0.23153 0.4128041 0.4554 0.636719 0.668946a10 10 0 0 0 0.057617 0.05371c0.1200226 0.112674 0.2420546 0.223888 0.3681641 0.331055 0.7800385 0.253774 1.610889 0.394508 2.4755875 0.394508 4.280207 0 7.765227-3.363861 7.979492-7.59082-0.20484 2.017024-1.908424 3.44043-3.979492 3.44043-0.135351 2.5e-5 -0.270616-0.0068-0.405273-0.02051-4e-3 -2.03e-4 -0.0077-7.5e-4 -0.01172-1e-3 -4.223231-0.21817-7.3828117-3.550571-7.3828117-7.8281 0-0.857241 0.1389984-1.680901 0.3886719-2.455078-0.0226965-0.062584-0.045609-0.110013-0.0683594-0.1689455z" style="fill:#ff5757"/>
 <path d="m11 6.999953c-1.75492 0-3.242297 1.1319595-3.78125 2.704102-0.103144 0.449591-0.174168 0.911788-0.198242 1.386718 0.20484-2.017024 1.908424-3.59082 3.979492-3.59082 0.135351-2.5e-5 0.270616 0.00682 0.405274 0.02051 4e-3 2.025e-4 0.0077 7.5e-4 0.01172 1e-3 4.148705 0.2143445 7.456542 3.581149 7.572265 7.754882 0.003236-0.092231 0.010741-0.183375 0.010741-0.276392 0-4.277528-3.359776-7.7603205-7.583008-7.9785155-4e-3 -2.5e-4 -0.0077-7.5e-4 -0.01172-1e-3 -0.134656-0.0136665-0.269921-0.0205095-0.405272-0.0204845zm9.987304 4.254883a10 10 0 0 1 -2.175781 5.939453c-0.05634 0.257711-0.120191 0.51267-0.200195 0.760742a10 10 0 0 0 2.388672 -6.455078 10 10 0 0 0 -0.0127 -0.245117zm-2.484375 6.333008a10 10 0 0 1 -0.14746 0.162109 10 10 0 0 0 0.14746 -0.162109zm0 0.5a10 10 0 0 1 -0.14746 0.162109 10 10 0 0 0 0.14746 -0.162109zm-0.567382 0.586914a10 10 0 0 1 -0.1875 0.174804c-0.0036 0.0077-0.0062 0.0158-0.0098 0.02344a10 10 0 0 0 0.197266 -0.198242z" style="opacity:.2"/>
 <path d="m15 3.000008c-4.277528 0-7.7603205 3.359776-7.9785155 7.583008-2.5e-4 0.0039-7.5e-4 0.0077-1e-3 0.01172-0.01369 0.134657-0.020535 0.269923-0.02051 0.405274 0 0.0863 0.00731 0.170917 0.012695 0.255859 0.0033-0.05369 0.00235-0.1076 0.00782-0.161133 2.025e-4 -4e-3 7.5e-4 -0.0077 1e-3 -0.01172 0.21819-4.223232 3.7009815-7.583008 7.9785105-7.583008 0.857241 0 1.680901 0.1389983 2.455078 0.3886719a10 10 0 0 0 -1.024414 -0.7539063c-0.464489-0.0853134-0.941334-0.1347656-1.430664-0.1347656zm2.58789 0.4970703a10 10 0 0 1 0.16211 0.1474609 10 10 0 0 0 -0.16211 -0.1474609zm0 0.5a10 10 0 0 1 0.16211 0.1474612 10 10 0 0 0 -0.16211 -0.1474612zm0.586914 0.5673827a10 10 0 0 1 0.174805 0.1875c0.0077 0.00355 0.0158 0.00619 0.02343 0.00977a10 10 0 0 0 -0.198235 -0.19727zm-15.164062 2.663086c-0.0031389 0.091011-0.0107422 0.180667-0.0107422 0.272461 0 4.280207 3.3638615 7.765227 7.590821 7.979492-0.816748-0.082945-1.557961-0.41474-2.1542975-0.914062-3.0906325-1.044018-5.329369-3.917997-5.4257813-7.337891z" style="opacity:.2"/>
 <path d="M 3,7 C 3,7.075485 3.00866,7.1486565 3.010742,7.223633 Z M 1.0126953,11.245117 C 1.0073796,11.330021 1.0031475,11.414989 1,11.5 1.0043,14.428964 2.2924922,17.208794 4.524414,19.105469 5.304451,19.359266 6.1353015,19.5 7,19.5 c 4.280207,0 7.765227,-3.363861 7.979492,-7.59082 -0.03127,0.307898 -0.10115,0.603498 -0.198242,0.886719 C 13.966394,16.347745 10.799294,19 7,19 6.1353015,19 5.304451,18.859266 4.524414,18.605469 2.3611547,16.762472 1.0842251,14.086104 1.0126953,11.245117 Z" style="opacity:.2"/>
 <path d="m11.40918 7.520508c1.932977 0.1963045 3.454314 1.770096 3.578125 3.723633 0.004966-0.081367 0.01271-0.162599 0.012695-0.244141 0-1.232436-0.56016-2.331636-1.436523-3.0654295-0.682103-0.230415-1.403776-0.3760185-2.154297-0.4140625zm7.580078 7.751953c-0.02643 0.76631-0.156934 1.505894-0.383789 2.203125a10 10 0 0 1 -7.605469 3.524414 10 10 0 0 1 -5.430664 -1.634766c-0.349233-0.064144-0.692153-0.146751-1.024414-0.253906a10 10 0 0 0 6.455078 2.388672 10 10 0 0 0 7.605469 -3.524414c0.253797-0.780037 0.394531-1.610888 0.394531-2.475586 0-0.07675-0.0086-0.151311-0.01074-0.227539zm-15.362305 2.96582a10 10 0 0 0 0.1982422 0.197266 10 10 0 0 1 -0.1748047 -0.1875c-0.00765-0.0036-0.015797-0.0062-0.023437-0.0098zm0.6230469 0.117188a10 10 0 0 0 0.1621095 0.14746 10 10 0 0 1 -0.1621095 -0.14746zm0 0.5a10 10 0 0 0 0.1621095 0.14746 10 10 0 0 1 -0.1621095 -0.14746z" style="opacity:.2"/>
 <path d="m 10.590821,14.979492 c -0.532278,-0.05406 2.303266,-0.676161 1.874003,-0.918171 C 11.267426,13.386256 7.2,12.524528 7.2,11 7.199975,10.864649 7.00682,10.729384 7.02051,10.594727 c 2.025e-4,-0.004 7.5e-4,-0.0077 0.001,-0.01172 C 7.239705,6.3597745 10.722471,3 15,3 15.857241,3 16.680901,3.1389985 17.455078,3.388672 15.653818,1.8537137 13.366554,1.0073219 11,1 8.0710355,1.0043047 5.291206,2.2924922 3.394531,4.524414 3.1407335,5.304451 3,6.1353015 3,7 c 0,4.280207 3.3638615,7.765227 7.590821,7.979492 z M 18.373047,4.261719 c -0.06516,-0.066676 -0.131246,-0.132438 -0.198243,-0.197266 0.05907,0.06175 0.11734,0.1242555 0.174805,0.1875 0.0077,0.00355 0.0158,0.00619 0.02343,0.00976 z M 17.75,3.644531 C 17.6965,3.594787 17.642464,3.54563 17.58789,3.4970705 c 0.05457,0.04856 0.108613,0.097716 0.16211,0.1474605 z" style="fill:#baff41"/>
 <path d="M 11,1 A 10,10 0 0 0 1,11 10,10 0 0 0 1.0107422,11.291016 10,10 0 0 1 11,1.5 10,10 0 0 1 20.989258,11.208985 10,10 0 0 0 21,11 10,10 0 0 0 11,1 Z" style="fill:#ffffff;opacity:.2"/>
 <path d="M 14.989258,11.211914 A 4,4 0 0 1 11,15 4,4 0 0 1 7.010742,11.288086 4,4 0 0 0 7,11.5 a 4,4 0 0 0 4,4 4,4 0 0 0 4,-4 4,4 0 0 0 -0.01074,-0.288086 z" style="opacity:.2"/>
 <circle cx="11" cy="11" r="4" style="fill:#555555"/>
</svg>

<svg xmlns="http://www.w3.org/2000/svg" width="22" height="22" version="1.1" viewBox="0 0 22 22">
 <path style="fill:#ffc42e" d="M 16.374023,2.5800781 C 15.827497,2.6819059 15.281698,2.7998047 15,2.7998047 c -2.308791,0 -4.995744,0.9718226 -6.5878905,2.9218748 C 7.052617,7.386778 6.6172425,9.880258 6.5185545,11.827149 6.6166625,10.8611 7.9079195,10.668756 8.569336,10.125977 9.288899,9.535481 9.920865,7.4003905 11,7.4003905 c 0.135351,-2.5e-5 0.270616,0.00682 0.405274,0.02051 0.004,2.025e-4 0.0077,7.5e-4 0.01172,10e-4 C 15.640222,7.6400445 18.75,10.722471 18.75,15 c 0,0.857241 -0.138999,1.680901 -0.388672,2.455078 0.07014,0.03117 0.13667,0.05525 0.203125,0.07813 a 10,10 0 0 0 0.0039,-0.0049 c 0.141068,-0.163359 0.269872,-0.33466 0.399414,-0.505859 a 10,10 0 0 0 0.186524,-0.245118 c 0.109508,-0.154384 0.209313,-0.314789 0.30957,-0.474609 a 10,10 0 0 0 0.202148,-0.330078 c 0.08758,-0.152417 0.168756,-0.308302 0.248047,-0.464844 a 10,10 0 0 0 0.181641,-0.375976 c 0.07194,-0.15808 0.139548,-0.317971 0.203125,-0.479492 a 10,10 0 0 0 0.148437,-0.404297 c 0.05373,-0.155916 0.106359,-0.312228 0.152344,-0.470703 a 10,10 0 0 0 0.120117,-0.473633 c 0.03391,-0.142561 0.07001,-0.284575 0.09766,-0.428711 a 10,10 0 0 0 0.08496,-0.561524 c 0.0167,-0.125205 0.03881,-0.248962 0.05078,-0.375 A 10,10 0 0 0 21,11 c -8.5e-4,-0.210145 -0.0084,-0.42021 -0.02246,-0.629883 -6.2e-5,-9.5e-4 6.5e-5,-0.002 0,-0.003 -0.0039,-0.05941 -0.01072,-0.11849 -0.01563,-0.177734 -0.02194,-0.277974 -0.0555,-0.554909 -0.100586,-0.830078 -0.01039,-0.06189 -0.0234,-0.12303 -0.03515,-0.184571 a 10,10 0 0 0 -0.002,-0.01074 c -0.04268,-0.226285 -0.09317,-0.4510285 -0.151367,-0.673828 -1.81e-4,-7e-4 -8.01e-4,-0.00125 -10e-4,-0.00195 -0.02994,-0.1145935 -0.06176,-0.228489 -0.0957,-0.3417965 C 20.51978,7.9588195 20.457905,7.7728665 20.390606,7.588852 20.338359,7.445658 20.283286,7.303638 20.224591,7.163071 20.157495,7.0017245 20.086181,6.8421645 20.010723,6.6845555 19.954795,6.568175 19.899143,6.451137 19.838848,6.336899 a 10,10 0 0 0 -0.0029,-0.00683 l -10e-4,-0.001 c -0.09287,-0.174063 -0.190917,-0.3453855 -0.293946,-0.513672 -0.0018,-0.003 -0.004,-0.00579 -0.0059,-0.00879 -0.08048,-0.1319395 -0.163337,-0.262371 -0.25,-0.390625 l -0.002,-0.00295 a 10,10 0 0 0 -0.002,-0.0039 C 19.180121,5.25981 19.074055,5.112672 18.964787,4.9686975 18.863474,4.835207 18.758557,4.7047035 18.650334,4.5761195 a 10,10 0 0 0 -0.0039,-0.0049 c -0.03579,-0.04131 -0.07193,-0.082329 -0.108398,-0.123047 -0.201683,-0.2315295 -0.412804,-0.4553997 -0.636719,-0.6689451 -0.0029,-0.00268 -0.0059,-0.00513 -0.0088,-0.00781 A 10,10 0 0 0 17.84375,3.7255859 C 17.723727,3.6129121 17.601696,3.5016984 17.475586,3.3945312 c 0.0024,-0.00246 0.0034,-0.00439 0.0059,-0.00684 A 10,10 0 0 0 16.374023,2.5800781 Z M 18.252929,17.58789 c -0.04856,0.05457 -0.09772,0.108613 -0.14746,0.16211 0.04975,-0.0535 0.0989,-0.107536 0.14746,-0.16211 z m -0.567382,0.586914 c -0.06175,0.05907 -0.124256,0.11734 -0.1875,0.174805 -0.0036,0.0077 -0.0062,0.0158 -0.0098,0.02343 0.06668,-0.06516 0.132439,-0.131248 0.197266,-0.198242 z"/>
 <path style="fill:#ff8514" d="m 11.40918,7.020508 c 2.017024,0.20484 2.94043,1.9582285 2.94043,4.029297 2.5e-5,0.135351 -0.0068,0.270616 -0.02051,0.405273 -2.03e-4,0.004 -7.5e-4,0.0077 -0.001,0.01172 -0.218144,4.22323 -3.050571,7.333006 -7.3281,7.333006 -0.857241,0 -2.102776,-0.64974 -2.876953,-0.899414 0.025365,0.02161 -0.01035,0.127617 -0.072266,0.275391 A 10,10 0 0 0 11,21 c 0.210145,-8.5e-4 0.42021,-0.0084 0.629883,-0.02246 9.5e-4,-6.2e-5 0.002,6.5e-5 0.003,0 0.05941,-0.0039 0.118491,-0.01072 0.177734,-0.01563 0.277975,-0.02194 0.554909,-0.0555 0.830079,-0.100586 0.06189,-0.01039 0.12303,-0.0234 0.18457,-0.03515 a 10,10 0 0 0 0.01074,-0.002 c 0.226285,-0.04268 0.451028,-0.09317 0.673828,-0.151367 7e-4,-1.81e-4 0.0013,-8.01e-4 0.002,-10e-4 0.114594,-0.02994 0.228489,-0.06176 0.341797,-0.0957 0.187649,-0.05637 0.373602,-0.118248 0.557617,-0.185547 0.143194,-0.05225 0.285214,-0.10732 0.425781,-0.166015 0.161347,-0.0671 0.320906,-0.13841 0.478515,-0.213868 0.116381,-0.05593 0.233419,-0.11158 0.347657,-0.171875 a 10,10 0 0 0 0.0068,-0.0029 l 0.001,-0.001 c 0.174086,-0.09289 0.345385,-0.190917 0.513672,-0.293946 0.003,-0.0018 0.0058,-0.004 0.0088,-0.0059 0.131939,-0.08048 0.262371,-0.163337 0.390625,-0.25 l 0.003,-0.002 a 10,10 0 0 0 0.0039,-0.002 c 0.149316,-0.101066 0.296455,-0.207138 0.440429,-0.316406 0.133491,-0.101313 0.263994,-0.20623 0.392578,-0.314453 a 10,10 0 0 0 0.0049,-0.0039 c 0.04131,-0.03579 0.08233,-0.07193 0.123047,-0.108398 0.23153,-0.201683 0.4554,-0.412804 0.668945,-0.636719 0.0027,-0.0029 0.0051,-0.0059 0.0078,-0.0088 a 10,10 0 0 0 0.0459,-0.04883 c 0.112674,-0.120023 0.223888,-0.242054 0.331055,-0.368164 C 18.859244,16.695567 19,15.864698 19,15 19,10.719793 15.636139,7.234773 11.40918,7.020508 Z M 3.6269531,17.538086 c 0.065158,0.06668 0.1312451,0.132438 0.1982422,0.197265 -0.059067,-0.06175 -0.11734,-0.124255 -0.1748047,-0.1875 -0.00765,-0.0036 -0.015797,-0.0062 -0.023437,-0.0098 z"/>
 <path style="fill:#ff5757" d="m 4.461914,3.6269531 c -0.066676,0.065158 -0.1324375,0.1312451 -0.1972655,0.1982422 0.061751,-0.059067 0.1242555,-0.11734 0.1875,-0.1748047 0.00355,-0.00765 0.00619,-0.015797 0.00976,-0.023437 z M 3.8447265,4.25 C 3.7949824,4.3034965 3.7458255,4.357536 3.6972656,4.4121095 3.7458255,4.357536 3.7949824,4.3034965 3.8447265,4.25 Z M 3.5205078,4.3759765 A 10,10 0 0 0 1,11 10,10 0 0 0 1.022461,11.629883 c 0.0039,0.06039 0.010638,0.120451 0.015625,0.180664 a 10,10 0 0 0 0.100586,0.830078 c 0.010991,0.06548 0.024831,0.130145 0.037109,0.195313 a 10,10 0 0 0 0.1513672,0.673828 c 0.030098,0.115296 0.062529,0.229758 0.09668,0.34375 a 10,10 0 0 0 0.1855467,0.557617 c 0.052247,0.143194 0.1073209,0.285214 0.1660156,0.425781 a 10,10 0 0 0 0.2138672,0.478515 c 0.057,0.118609 0.1131505,0.238189 0.1748047,0.354493 2.041e-4,3.85e-4 7.7e-4,6e-4 9.75e-4,10e-4 a 10,10 0 0 0 0.2939454,0.513672 c 0.082188,0.135025 0.1672233,0.268239 0.2558593,0.399414 0.1024148,0.151565 0.2094532,0.301195 0.3203125,0.447265 0.1025716,0.13515 0.2087039,0.267329 0.3183593,0.397461 a 10,10 0 0 0 0.1083985,0.123047 c 0.2016825,0.23153 0.4128041,0.4554 0.636719,0.668946 a 10,10 0 0 0 0.057617,0.05371 C 4.276271,18.387111 4.398303,18.498325 4.5244125,18.605492 5.304451,18.859266 6.1353015,19 7,19 c 4.280207,0 7.765227,-3.363861 7.979492,-7.59082 -0.20484,2.017024 -1.908424,3.44043 -3.979492,3.44043 -0.135351,2.5e-5 -0.270616,-0.0068 -0.405273,-0.02051 -0.004,-2.03e-4 -0.0077,-7.5e-4 -0.01172,-0.001 C 6.359776,14.60993 3.2001953,11.277529 3.2001953,7 c 0,-0.857241 0.1389984,-1.680901 0.3886719,-2.455078 C 3.5661707,4.482338 3.5432582,4.434909 3.5205078,4.3759765 Z"/>
 <path style="opacity:0.2" d="m 11,6.999953 c -1.75492,0 -3.242297,1.1319595 -3.78125,2.704102 C 7.115606,10.153646 7.044582,10.615843 7.020508,11.090773 7.225348,9.073749 8.928932,7.499953 11,7.499953 c 0.135351,-2.5e-5 0.270616,0.00682 0.405274,0.02051 0.004,2.025e-4 0.0077,7.5e-4 0.01172,10e-4 4.148705,0.2143445 7.456542,3.581149 7.572265,7.754882 C 18.992495,15.184114 19,15.09297 19,14.999953 19,10.722425 15.640224,7.2396325 11.416992,7.0214375 c -0.004,-2.5e-4 -0.0077,-7.5e-4 -0.01172,-0.001 C 11.270616,7.006771 11.135351,6.999928 11,6.999953 Z m 9.987304,4.254883 a 10,10 0 0 1 -2.175781,5.939453 c -0.05634,0.257711 -0.120191,0.51267 -0.200195,0.760742 A 10,10 0 0 0 21,11.499953 10,10 0 0 0 20.9873,11.254836 Z m -2.484375,6.333008 a 10,10 0 0 1 -0.14746,0.162109 10,10 0 0 0 0.14746,-0.162109 z m 0,0.5 a 10,10 0 0 1 -0.14746,0.162109 10,10 0 0 0 0.14746,-0.162109 z m -0.567382,0.586914 a 10,10 0 0 1 -0.1875,0.174804 c -0.0036,0.0077 -0.0062,0.0158 -0.0098,0.02344 a 10,10 0 0 0 0.197266,-0.198242 z"/>
 <path style="opacity:0.2" d="m 15,3.000008 c -4.277528,0 -7.7603205,3.359776 -7.9785155,7.583008 -2.5e-4,0.0039 -7.5e-4,0.0077 -10e-4,0.01172 -0.01369,0.134657 -0.020535,0.269923 -0.02051,0.405274 0,0.0863 0.00731,0.170917 0.012695,0.255859 0.0033,-0.05369 0.00235,-0.1076 0.00782,-0.161133 2.025e-4,-0.004 7.5e-4,-0.0077 0.001,-0.01172 C 7.2396795,6.859784 10.722471,3.500008 15,3.500008 c 0.857241,0 1.680901,0.1389983 2.455078,0.3886719 A 10,10 0 0 0 16.430664,3.1347736 C 15.966175,3.0494602 15.48933,3.000008 15,3.000008 Z m 2.58789,0.4970703 A 10,10 0 0 1 17.75,3.6445392 10,10 0 0 0 17.58789,3.4970783 Z m 0,0.5 A 10,10 0 0 1 17.75,4.1445395 10,10 0 0 0 17.58789,3.9970783 Z m 0.586914,0.5673827 a 10,10 0 0 1 0.174805,0.1875 c 0.0077,0.00355 0.0158,0.00619 0.02343,0.00977 A 10,10 0 0 0 18.174804,4.564461 Z M 3.0107422,7.227547 C 3.0076033,7.318558 3,7.408214 3,7.500008 3,11.780215 6.3638615,15.265235 10.590821,15.4795 9.774073,15.396555 9.03286,15.06476 8.4365235,14.565438 5.345891,13.52142 3.1071545,10.647441 3.0107422,7.227547 Z"/>
 <path style="opacity:0.2" d="M 3,7 C 3,7.075485 3.00866,7.1486565 3.010742,7.223633 Z M 1.0126953,11.245117 C 1.0073796,11.330021 1.0031475,11.414989 1,11.5 1.0043,14.428964 2.2924922,17.208794 4.524414,19.105469 5.304451,19.359266 6.1353015,19.5 7,19.5 c 4.280207,0 7.765227,-3.363861 7.979492,-7.59082 -0.03127,0.307898 -0.10115,0.603498 -0.198242,0.886719 C 13.966394,16.347745 10.799294,19 7,19 6.1353015,19 5.304451,18.859266 4.524414,18.605469 2.3611547,16.762472 1.0842251,14.086104 1.0126953,11.245117 Z"/>
 <path style="opacity:0.2" d="m 11.40918,7.520508 c 1.932977,0.1963045 3.454314,1.770096 3.578125,3.723633 C 14.992271,11.162774 15.000015,11.081542 15,11 15,9.767564 14.43984,8.668364 13.563477,7.9345705 12.881374,7.7041555 12.159701,7.558552 11.40918,7.520508 Z m 7.580078,7.751953 c -0.02643,0.76631 -0.156934,1.505894 -0.383789,2.203125 A 10,10 0 0 1 11,21 10,10 0 0 1 5.569336,19.365234 C 5.220103,19.30109 4.877183,19.218483 4.544922,19.111328 A 10,10 0 0 0 11,21.5 10,10 0 0 0 18.605469,17.975586 C 18.859266,17.195549 19,16.364698 19,15.5 19,15.42325 18.9914,15.348689 18.98926,15.272461 Z m -15.3623049,2.96582 a 10,10 0 0 0 0.1982422,0.197266 10,10 0 0 1 -0.1748047,-0.1875 c -0.00765,-0.0036 -0.015797,-0.0062 -0.023437,-0.0098 z M 4.25,18.355469 A 10,10 0 0 0 4.4121095,18.502929 10,10 0 0 1 4.25,18.355469 Z m 0,0.5 A 10,10 0 0 0 4.4121095,19.002929 10,10 0 0 1 4.25,18.855469 Z"/>
 <path style="fill:#baff41" d="m 10.590821,14.979492 c -0.532278,-0.05406 2.303266,-0.676161 1.874003,-0.918171 C 11.267426,13.386256 7.2,12.524528 7.2,11 7.199975,10.864649 7.00682,10.729384 7.02051,10.594727 c 2.025e-4,-0.004 7.5e-4,-0.0077 0.001,-0.01172 C 7.239705,6.3597745 10.722471,3 15,3 15.857241,3 16.680901,3.1389985 17.455078,3.388672 15.653818,1.8537137 13.366554,1.0073219 11,1 8.0710355,1.0043047 5.291206,2.2924922 3.394531,4.524414 3.1407335,5.304451 3,6.1353015 3,7 c 0,4.280207 3.3638615,7.765227 7.590821,7.979492 z M 18.373047,4.261719 c -0.06516,-0.066676 -0.131246,-0.132438 -0.198243,-0.197266 0.05907,0.06175 0.11734,0.1242555 0.174805,0.1875 0.0077,0.00355 0.0158,0.00619 0.02343,0.00976 z M 17.75,3.644531 C 17.6965,3.594787 17.642464,3.54563 17.58789,3.4970705 c 0.05457,0.04856 0.108613,0.097716 0.16211,0.1474605 z"/>
 <path style="opacity:0.2;fill:#ffffff" d="M 11,1 A 10,10 0 0 0 1,11 10,10 0 0 0 1.0107422,11.291016 10,10 0 0 1 11,1.5 10,10 0 0 1 20.989258,11.208985 10,10 0 0 0 21,11 10,10 0 0 0 11,1 Z"/>
 <path style="opacity:0.2" d="M 14.989258,11.211914 A 4,4 0 0 1 11,15 4,4 0 0 1 7.010742,11.288086 4,4 0 0 0 7,11.5 a 4,4 0 0 0 4,4 4,4 0 0 0 4,-4 4,4 0 0 0 -0.01074,-0.288086 z"/>
 <circle style="fill:#555555" cx="11" cy="11" r="4"/>
</svg>
